;FLAVOR:Marlin
;TIME:2607
;Filament used: 1.25391m
;Layer height: 0.2
;Generated with Cura_SteamEngine 3.1.0
M190 S60
M104 S205
M109 S205
M82 ; absolute extrusion mode
G28 ;Home
G1 Z15.0 F6000 ;Move the platform down 15mm
;Prime the extruder
G92 E0
G1 F200 E3
G92 E0
;LAYER_COUNT:75
;LAYER:0
M107
G0 F3600 X17.44 Y7.319 Z0.3
;TYPE:SKIRT
G1 F900 X17.5 Y7.571 E0.01292
G1 X17.605 Y8.354 E0.05234
G1 X17.631 Y9.143 E0.09172
G1 X17.576 Y9.931 E0.13113
G1 X17.443 Y10.709 E0.17051
G1 X17.231 Y11.47 E0.20992
G1 X16.943 Y12.205 E0.24931
G1 X16.583 Y12.908 E0.28871
G1 X16.153 Y13.57 E0.32809
G1 X15.599 Y14.253 E0.37197
G1 X14.703 Y15.237 E0.43836
G1 X14.143 Y15.793 E0.47773
G1 X13.511 Y16.302 E0.51822
G1 X12.14 Y17.295 E0.60267
G1 X20.606 Y17.295 E1.02504
G1 X21.395 Y17.335 E1.06446
G1 X22.175 Y17.454 E1.10382
G1 X22.94 Y17.652 E1.14325
G1 X23.68 Y17.926 E1.18261
G1 X24.389 Y18.274 E1.22202
G1 X25.06 Y18.692 E1.26146
G1 X25.684 Y19.175 E1.30083
G1 X26.121 Y19.58 E1.33055
G1 X26.238 Y19.697 E1.33881
G1 X26.768 Y20.283 E1.37823
G1 X27.235 Y20.919 E1.41759
G1 X27.636 Y21.599 E1.45698
G1 X27.966 Y22.317 E1.4964
G1 X28.221 Y23.064 E1.53578
G1 X28.4 Y23.833 E1.57517
G1 X28.5 Y24.617 E1.6146
G1 X28.523 Y25.227 E1.64506
G1 X28.494 Y39.993 E2.38174
G1 X28.452 Y40.782 E2.42115
G1 X28.331 Y41.562 E2.46053
G1 X28.132 Y42.326 E2.49992
G1 X27.857 Y43.066 E2.53931
G1 X27.508 Y43.775 E2.57873
G1 X27.089 Y44.444 E2.61812
G1 X26.604 Y45.068 E2.65754
G1 X26.209 Y45.493 E2.68649
G1 X26.092 Y45.61 E2.69475
G1 X25.506 Y46.14 E2.73417
G1 X24.87 Y46.607 E2.77353
G1 X24.19 Y47.008 E2.81292
G1 X23.472 Y47.338 E2.85234
G1 X22.725 Y47.593 E2.89172
G1 X21.956 Y47.772 E2.93111
G1 X21.172 Y47.872 E2.97054
G1 X20.577 Y47.895 E3.00025
G1 X19.809 Y47.895 E3.03856
G1 X19.02 Y47.855 E3.07798
G1 X18.24 Y47.736 E3.11734
G1 X17.475 Y47.538 E3.15677
G1 X16.735 Y47.264 E3.19613
G1 X16.026 Y46.916 E3.23554
G1 X15.992 Y46.895 E3.23753
G1 X-7.558 Y46.895 E4.41245
G1 X-7.75 Y47.008 E4.42356
G1 X-8.468 Y47.338 E4.46298
G1 X-9.215 Y47.593 E4.50236
G1 X-9.984 Y47.772 E4.54176
G1 X-10.768 Y47.872 E4.58119
G1 X-11.363 Y47.895 E4.61089
G1 X-12.129 Y47.895 E4.64911
G1 X-12.918 Y47.855 E4.68852
G1 X-13.698 Y47.736 E4.72789
G1 X-14.463 Y47.538 E4.76731
G1 X-15.203 Y47.264 E4.80668
G1 X-15.912 Y46.916 E4.84608
G1 X-16.583 Y46.498 E4.88552
G1 X-17.207 Y46.015 E4.92489
G1 X-17.644 Y45.61 E4.95462
G1 X-17.761 Y45.493 E4.96287
G1 X-18.291 Y44.907 E5.00229
G1 X-18.758 Y44.271 E5.04166
G1 X-19.159 Y43.591 E5.08104
G1 X-19.489 Y42.873 E5.12046
G1 X-19.744 Y42.126 E5.15984
G1 X-19.923 Y41.357 E5.19924
G1 X-20.023 Y40.573 E5.23867
G1 X-20.046 Y39.994 E5.26758
G1 X-20.077 Y25.228 E6.00426
G1 X-20.039 Y24.44 E6.04361
G1 X-19.921 Y23.659 E6.08302
G1 X-19.725 Y22.894 E6.12242
G1 X-19.452 Y22.153 E6.16182
G1 X-19.106 Y21.443 E6.20122
G1 X-18.69 Y20.772 E6.24061
G1 X-18.208 Y20.146 E6.28003
G1 X-17.792 Y19.697 E6.31056
G1 X-17.675 Y19.58 E6.31882
G1 X-17.089 Y19.05 E6.35824
G1 X-16.453 Y18.583 E6.3976
G1 X-15.773 Y18.182 E6.43699
G1 X-15.055 Y17.852 E6.47641
G1 X-14.308 Y17.597 E6.51579
G1 X-13.539 Y17.418 E6.55518
G1 X-12.755 Y17.318 E6.59461
G1 X-12.16 Y17.295 E6.62432
G1 X-12.143 Y17.295 E6.62517
G1 X-13.564 Y16.261 E6.71284
G1 X-14.179 Y15.764 E6.75229
G1 X-14.773 Y15.172 E6.79413
G1 X-15.631 Y14.219 E6.85811
G1 X-16.129 Y13.606 E6.89751
G1 X-16.562 Y12.946 E6.93689
G1 X-16.927 Y12.245 E6.97632
G1 X-17.219 Y11.512 E7.01569
G1 X-17.435 Y10.752 E7.05511
G1 X-17.573 Y9.975 E7.09448
G1 X-17.632 Y9.187 E7.1339
G1 X-17.611 Y8.398 E7.17328
G1 X-17.51 Y7.615 E7.21267
G1 X-17.442 Y7.322 E7.22767
G1 X-17.961 Y6.92 E7.26042
G1 X-18.398 Y6.515 E7.29015
G1 X-18.515 Y6.398 E7.2984
G1 X-19.045 Y5.812 E7.33782
G1 X-19.512 Y5.176 E7.37719
G1 X-19.913 Y4.496 E7.41657
G1 X-20.243 Y3.778 E7.456
G1 X-20.498 Y3.031 E7.49538
G1 X-20.677 Y2.262 E7.53477
G1 X-20.777 Y1.478 E7.5742
G1 X-20.8 Y0.883 E7.60391
G1 X-20.8 Y0.117 E7.64212
G1 X-20.76 Y-.672 E7.68154
G1 X-20.641 Y-1.452 E7.7209
G1 X-20.443 Y-2.217 E7.76032
G1 X-20.169 Y-2.957 E7.79969
G1 X-19.821 Y-3.666 E7.8391
G1 X-19.403 Y-4.337 E7.87854
G1 X-18.92 Y-4.961 E7.9179
G1 X-18.515 Y-5.398 E7.94763
G1 X-18.398 Y-5.515 E7.95588
G1 X-18.179 Y-5.713 E7.97061
G1 X-18.283 Y-6.045 E7.98797
G1 X-18.442 Y-6.818 E8.02734
G1 X-18.522 Y-7.604 E8.06676
G1 X-18.522 Y-8.394 E8.10617
G1 X-18.442 Y-9.179 E8.14554
G1 X-18.284 Y-9.953 E8.18495
G1 X-18.048 Y-10.707 E8.22437
G1 X-17.737 Y-11.432 E8.26373
G1 X-17.354 Y-12.123 E8.30314
G1 X-16.903 Y-12.772 E8.34257
G1 X-16.515 Y-13.236 E8.37275
G1 X-14.719 Y-15.22 E8.50626
G1 X-14.16 Y-15.778 E8.54567
G1 X-13.511 Y-16.302 E8.58728
G1 X-11.281 Y-17.917 E8.72465
G1 X-10.619 Y-18.348 E8.76406
G1 X-9.87 Y-18.729 E8.80598
G1 X-7.281 Y-19.878 E8.9473
G1 X-6.544 Y-20.162 E8.9867
G1 X-5.732 Y-20.38 E9.02865
G1 X-2.996 Y-20.959 E9.16817
G1 X-2.216 Y-21.083 E9.20757
G1 X-1.37 Y-21.128 E9.24984
G1 X1.431 Y-21.124 E9.38958
G1 X2.22 Y-21.083 E9.429
G1 X3.05 Y-20.952 E9.47092
G1 X5.788 Y-20.367 E9.6106
G1 X6.551 Y-20.163 E9.65001
G1 X7.345 Y-19.858 E9.69244
G1 X9.914 Y-18.708 E9.83286
G1 X10.617 Y-18.35 E9.87222
G1 X11.315 Y-17.897 E9.91374
G1 X13.564 Y-16.261 E10.05249
G1 X14.179 Y-15.764 E10.09194
G1 X14.773 Y-15.171 E10.13381
G1 X16.531 Y-13.218 E10.26491
G1 X17.029 Y-12.606 E10.30427
G1 X17.463 Y-11.945 E10.34372
G1 X17.827 Y-11.245 E10.38308
G1 X18.119 Y-10.511 E10.42249
G1 X18.335 Y-9.751 E10.46191
G1 X18.473 Y-8.974 E10.50128
G1 X18.532 Y-8.186 E10.54071
G1 X18.511 Y-7.397 E10.58008
G1 X18.41 Y-6.614 E10.61947
G1 X18.23 Y-5.845 E10.65887
G1 X18.185 Y-5.713 E10.66583
G1 X18.398 Y-5.515 E10.68034
G1 X18.515 Y-5.398 E10.6886
G1 X19.045 Y-4.812 E10.72802
G1 X19.512 Y-4.176 E10.76738
G1 X19.913 Y-3.496 E10.80677
G1 X20.243 Y-2.778 E10.84619
G1 X20.498 Y-2.031 E10.88557
G1 X20.677 Y-1.262 E10.92496
G1 X20.777 Y-.478 E10.96439
G1 X20.8 Y0.117 E10.9941
G1 X20.8 Y0.883 E11.03231
G1 X20.76 Y1.672 E11.07173
G1 X20.641 Y2.452 E11.11109
G1 X20.443 Y3.217 E11.15052
G1 X20.169 Y3.957 E11.18988
G1 X19.821 Y4.666 E11.22929
G1 X19.403 Y5.337 E11.26873
G1 X18.92 Y5.961 E11.3081
G1 X18.515 Y6.398 E11.33782
G1 X18.398 Y6.515 E11.34608
G1 X17.812 Y7.045 E11.3855
G1 X17.44 Y7.319 E11.40855
G0 F3600 X16.996 Y7.147
G1 F900 X17.15 Y7.901 E11.44694
G1 X17.224 Y8.666 E11.48528
G1 X17.219 Y9.435 E11.52365
G1 X17.134 Y10.2 E11.56205
G1 X16.97 Y10.951 E11.6004
G1 X16.729 Y11.682 E11.6388
G1 X16.414 Y12.383 E11.67714
G1 X16.027 Y13.048 E11.71553
G1 X15.574 Y13.669 E11.75388
G1 X15.304 Y13.983 E11.77454
G1 X14.408 Y14.967 E11.84093
G1 X13.861 Y15.508 E11.87932
G1 X13.276 Y15.978 E11.91676
G1 X11.046 Y17.593 E12.05412
G1 X10.889 Y17.695 E12.06346
G1 X20.606 Y17.695 E12.54825
G1 X21.374 Y17.735 E12.58661
G1 X22.134 Y17.854 E12.62499
G1 X22.877 Y18.052 E12.66335
G1 X23.596 Y18.326 E12.70174
G1 X24.282 Y18.673 E12.7401
G1 X24.929 Y19.089 E12.77847
G1 X25.529 Y19.57 E12.81684
G1 X25.839 Y19.862 E12.83808
G1 X25.956 Y19.979 E12.84634
G1 X26.47 Y20.551 E12.8847
G1 X26.923 Y21.173 E12.92309
G1 X27.309 Y21.838 E12.96146
G1 X27.624 Y22.54 E12.99984
G1 X27.864 Y23.271 E13.03823
G1 X28.027 Y24.022 E13.07657
G1 X28.111 Y24.787 E13.11496
G1 X28.123 Y25.227 E13.13692
G1 X28.094 Y39.993 E13.8736
G1 X28.053 Y40.761 E13.91197
G1 X27.932 Y41.52 E13.95032
G1 X27.732 Y42.263 E13.98871
G1 X27.457 Y42.981 E14.02706
G1 X27.109 Y43.667 E14.06544
G1 X26.691 Y44.313 E14.10383
G1 X26.209 Y44.912 E14.14219
G1 X25.927 Y45.211 E14.16269
G1 X25.81 Y45.328 E14.17095
G1 X25.238 Y45.842 E14.20931
G1 X24.616 Y46.295 E14.2477
G1 X23.951 Y46.681 E14.28606
G1 X23.249 Y46.996 E14.32445
G1 X22.518 Y47.236 E14.36284
G1 X21.767 Y47.399 E14.40118
G1 X21.002 Y47.483 E14.43957
G1 X20.577 Y47.495 E14.46078
G1 X19.809 Y47.495 E14.4991
G1 X19.041 Y47.455 E14.53747
G1 X18.281 Y47.336 E14.57584
G1 X17.538 Y47.138 E14.61421
G1 X16.819 Y46.864 E14.65259
G1 X16.133 Y46.517 E14.69095
G1 X16.099 Y46.495 E14.69297
G1 X-7.669 Y46.495 E15.87876
G1 X-7.989 Y46.681 E15.89722
G1 X-8.691 Y46.996 E15.93561
G1 X-9.422 Y47.236 E15.974
G1 X-10.173 Y47.399 E16.01234
G1 X-10.938 Y47.483 E16.05073
G1 X-11.363 Y47.495 E16.07194
G1 X-12.129 Y47.495 E16.11016
G1 X-12.897 Y47.455 E16.14853
G1 X-13.657 Y47.336 E16.18691
G1 X-14.4 Y47.138 E16.22527
G1 X-15.119 Y46.864 E16.26366
G1 X-15.805 Y46.517 E16.30201
G1 X-16.452 Y46.101 E16.34038
G1 X-17.052 Y45.62 E16.37875
G1 X-17.362 Y45.328 E16.4
G1 X-17.479 Y45.211 E16.40825
G1 X-17.993 Y44.639 E16.44662
G1 X-18.446 Y44.017 E16.48501
G1 X-18.832 Y43.352 E16.52337
G1 X-19.147 Y42.65 E16.56176
G1 X-19.387 Y41.919 E16.60014
G1 X-19.55 Y41.168 E16.63848
G1 X-19.634 Y40.403 E16.67688
G1 X-19.646 Y39.994 E16.69729
G1 X-19.677 Y25.228 E17.43397
G1 X-19.639 Y24.459 E17.47238
G1 X-19.521 Y23.699 E17.51075
G1 X-19.325 Y22.956 E17.54909
G1 X-19.052 Y22.236 E17.58751
G1 X-18.707 Y21.549 E17.62586
G1 X-18.292 Y20.901 E17.66425
G1 X-17.812 Y20.3 E17.70262
G1 X-17.51 Y19.979 E17.72461
G1 X-17.393 Y19.862 E17.73287
G1 X-16.821 Y19.348 E17.77123
G1 X-16.199 Y18.895 E17.80962
G1 X-15.534 Y18.509 E17.84798
G1 X-14.832 Y18.194 E17.88637
G1 X-14.101 Y17.954 E17.92476
G1 X-13.35 Y17.791 E17.9631
G1 X-12.585 Y17.707 E18.00149
G1 X-12.16 Y17.695 E18.0227
G1 X-10.893 Y17.695 E18.08591
G1 X-11.08 Y17.573 E18.09705
G1 X-13.329 Y15.937 E18.2358
G1 X-13.927 Y15.453 E18.27418
G1 X-14.476 Y14.904 E18.31292
G1 X-15.334 Y13.951 E18.37689
G1 X-15.818 Y13.354 E18.41524
G1 X-16.237 Y12.709 E18.45361
G1 X-16.588 Y12.024 E18.49201
G1 X-16.865 Y11.307 E18.53036
G1 X-17.067 Y10.565 E18.56872
G1 X-17.19 Y9.806 E18.60709
G1 X-17.234 Y9.038 E18.64546
G1 X-17.198 Y8.269 E18.68387
G1 X-17.082 Y7.509 E18.72223
G1 X-16.987 Y7.147 E18.7409
G1 X-17.206 Y7.006 E18.75389
G1 X-17.806 Y6.525 E18.79226
G1 X-18.116 Y6.233 E18.81351
G1 X-18.233 Y6.116 E18.82176
G1 X-18.747 Y5.544 E18.86013
G1 X-19.2 Y4.922 E18.89852
G1 X-19.586 Y4.257 E18.93688
G1 X-19.901 Y3.555 E18.97526
G1 X-20.141 Y2.824 E19.01365
G1 X-20.304 Y2.073 E19.05199
G1 X-20.388 Y1.308 E19.09038
G1 X-20.4 Y0.883 E19.1116
G1 X-20.4 Y0.117 E19.14981
G1 X-20.36 Y-.651 E19.18818
G1 X-20.241 Y-1.411 E19.22656
G1 X-20.043 Y-2.154 E19.26492
G1 X-19.769 Y-2.873 E19.30331
G1 X-19.422 Y-3.559 E19.34166
G1 X-19.006 Y-4.206 E19.38004
G1 X-18.525 Y-4.806 E19.4184
G1 X-18.233 Y-5.116 E19.43965
G1 X-18.116 Y-5.233 E19.4479
G1 X-17.723 Y-5.586 E19.47426
G1 X-17.751 Y-5.657 E19.47807
G1 X-17.956 Y-6.398 E19.51642
G1 X-18.084 Y-7.157 E19.55483
G1 X-18.132 Y-7.924 E19.59317
G1 X-18.1 Y-8.693 E19.63157
G1 X-17.988 Y-9.454 E19.66994
G1 X-17.798 Y-10.199 E19.7083
G1 X-17.532 Y-10.921 E19.74669
G1 X-17.192 Y-11.611 E19.78506
G1 X-16.782 Y-12.262 E19.82345
G1 X-16.218 Y-12.967 E19.86849
G1 X-14.422 Y-14.951 E20.002
G1 X-13.877 Y-15.494 E20.04039
G1 X-13.276 Y-15.978 E20.07888
G1 X-11.046 Y-17.593 E20.21625
G1 X-10.401 Y-18.012 E20.25462
G1 X-9.708 Y-18.364 E20.2934
G1 X-7.119 Y-19.513 E20.43472
G1 X-6.4 Y-19.788 E20.47312
G1 X-5.649 Y-19.989 E20.51191
G1 X-2.913 Y-20.568 E20.65143
G1 X-2.153 Y-20.688 E20.68982
G1 X-1.37 Y-20.728 E20.72893
G1 X1.431 Y-20.724 E20.86867
G1 X2.199 Y-20.683 E20.90704
G1 X2.966 Y-20.561 E20.94579
G1 X5.704 Y-19.976 E21.08547
G1 X6.447 Y-19.776 E21.12386
G1 X7.181 Y-19.493 E21.16311
G1 X9.75 Y-18.343 E21.30353
G1 X10.435 Y-17.993 E21.34191
G1 X11.08 Y-17.573 E21.38031
G1 X13.329 Y-15.937 E21.51906
G1 X13.927 Y-15.453 E21.55744
G1 X14.476 Y-14.904 E21.59618
G1 X16.234 Y-12.951 E21.72727
G1 X16.718 Y-12.353 E21.76565
G1 X17.138 Y-11.709 E21.80401
G1 X17.488 Y-11.024 E21.84239
G1 X17.765 Y-10.306 E21.88078
G1 X17.967 Y-9.564 E21.91915
G1 X18.09 Y-8.805 E21.95751
G1 X18.134 Y-8.037 E21.99589
G1 X18.098 Y-7.269 E22.03425
G1 X17.982 Y-6.508 E22.07265
G1 X17.788 Y-5.764 E22.11101
G1 X17.723 Y-5.591 E22.12023
G1 X17.806 Y-5.525 E22.12552
G1 X18.116 Y-5.233 E22.14677
G1 X18.233 Y-5.116 E22.15502
G1 X18.747 Y-4.544 E22.19339
G1 X19.2 Y-3.922 E22.23178
G1 X19.586 Y-3.257 E22.27014
G1 X19.901 Y-2.555 E22.30853
G1 X20.141 Y-1.824 E22.34691
G1 X20.304 Y-1.073 E22.38525
G1 X20.388 Y-.308 E22.42365
G1 X20.4 Y0.117 E22.44486
G1 X20.4 Y0.883 E22.48308
G1 X20.36 Y1.651 E22.52144
G1 X20.241 Y2.411 E22.55982
G1 X20.043 Y3.154 E22.59818
G1 X19.769 Y3.873 E22.63657
G1 X19.422 Y4.559 E22.67492
G1 X19.006 Y5.206 E22.7133
G1 X18.525 Y5.806 E22.75167
G1 X18.233 Y6.116 E22.77291
G1 X18.116 Y6.233 E22.78117
G1 X17.544 Y6.747 E22.81953
G1 X16.996 Y7.146 E22.85335
G1 X16.996 Y7.147 E22.8534
G0 F3600 X16.666 Y7.486
G1 F900 X16.789 Y8.224 E22.89073
G1 X16.832 Y8.971 E22.92806
G1 X16.795 Y9.718 E22.96537
G1 X16.679 Y10.457 E23.00269
G1 X16.484 Y11.18 E23.04005
G1 X16.214 Y11.877 E23.07734
G1 X15.87 Y12.542 E23.1147
G1 X15.458 Y13.166 E23.152
G1 X15.008 Y13.714 E23.18738
G1 X14.112 Y14.698 E23.25377
G1 X13.579 Y15.223 E23.2911
G1 X13.042 Y15.654 E23.32545
G1 X10.812 Y17.269 E23.46282
G1 X10.183 Y17.675 E23.50017
G1 X9.546 Y17.998 E23.5358
G1 X9.327 Y18.095 E23.54775
G1 X20.606 Y18.095 E24.11046
G1 X21.353 Y18.135 E24.14778
G1 X22.091 Y18.254 E24.18508
G1 X22.813 Y18.452 E24.22243
G1 X23.509 Y18.725 E24.25973
G1 X24.172 Y19.072 E24.29706
G1 X24.795 Y19.487 E24.33441
G1 X25.556 Y20.145 E24.3846
G1 X25.673 Y20.262 E24.39285
G1 X26.173 Y20.819 E24.4302
G1 X26.61 Y21.425 E24.46747
G1 X26.981 Y22.075 E24.50481
G1 X27.28 Y22.761 E24.54214
G1 X27.504 Y23.475 E24.57948
G1 X27.651 Y24.208 E24.61678
G1 X27.723 Y25.226 E24.66769
G1 X27.694 Y39.992 E25.40437
G1 X27.653 Y40.739 E25.44169
G1 X27.532 Y41.477 E25.479
G1 X27.333 Y42.198 E25.51632
G1 X27.058 Y42.894 E25.55366
G1 X26.71 Y43.556 E25.59097
G1 X26.294 Y44.178 E25.6283
G1 X25.644 Y44.928 E25.67782
G1 X25.527 Y45.045 E25.68607
G1 X24.97 Y45.545 E25.72341
G1 X24.364 Y45.982 E25.76069
G1 X23.714 Y46.353 E25.79803
G1 X23.028 Y46.652 E25.83536
G1 X22.314 Y46.876 E25.8727
G1 X21.581 Y47.023 E25.90999
G1 X20.577 Y47.095 E25.96021
G1 X19.809 Y47.095 E25.99853
G1 X19.062 Y47.055 E26.03585
G1 X18.324 Y46.936 E26.07314
G1 X17.602 Y46.738 E26.11049
G1 X16.906 Y46.465 E26.14779
G1 X16.243 Y46.118 E26.18513
G1 X16.208 Y46.095 E26.18722
G1 X-7.774 Y46.095 E27.38368
G1 X-8.226 Y46.353 E27.40965
G1 X-8.912 Y46.652 E27.44698
G1 X-9.626 Y46.876 E27.48432
G1 X-10.359 Y47.023 E27.52161
G1 X-11.363 Y47.095 E27.57183
G1 X-12.129 Y47.095 E27.61005
G1 X-12.876 Y47.055 E27.64737
G1 X-13.614 Y46.936 E27.68466
G1 X-14.336 Y46.738 E27.72201
G1 X-15.032 Y46.465 E27.75931
G1 X-15.695 Y46.118 E27.79665
G1 X-16.318 Y45.703 E27.83399
G1 X-17.079 Y45.045 E27.88418
G1 X-17.196 Y44.928 E27.89244
G1 X-17.696 Y44.371 E27.92978
G1 X-18.133 Y43.765 E27.96706
G1 X-18.504 Y43.115 E28.0044
G1 X-18.803 Y42.429 E28.04173
G1 X-19.027 Y41.715 E28.07906
G1 X-19.174 Y40.982 E28.11636
G1 X-19.246 Y39.993 E28.16583
G1 X-19.277 Y25.227 E28.90251
G1 X-19.239 Y24.48 E28.93983
G1 X-19.121 Y23.741 E28.97717
G1 X-18.925 Y23.019 E29.01449
G1 X-18.653 Y22.322 E29.05182
G1 X-18.308 Y21.658 E29.08915
G1 X-17.894 Y21.035 E29.12647
G1 X-17.227 Y20.262 E29.17741
G1 X-17.11 Y20.145 E29.18566
G1 X-16.553 Y19.645 E29.223
G1 X-15.947 Y19.208 E29.26028
G1 X-15.297 Y18.837 E29.29762
G1 X-14.611 Y18.538 E29.33495
G1 X-13.897 Y18.314 E29.37228
G1 X-13.164 Y18.167 E29.40958
G1 X-12.16 Y18.095 E29.4598
G1 X-9.326 Y18.095 E29.60119
G1 X-9.587 Y17.978 E29.61546
G1 X-10.253 Y17.636 E29.65281
G1 X-10.845 Y17.25 E29.68807
G1 X-13.094 Y15.614 E29.82682
G1 X-13.674 Y15.142 E29.86413
G1 X-14.178 Y14.637 E29.89972
G1 X-15.036 Y13.684 E29.9637
G1 X-15.506 Y13.102 E30.00102
G1 X-15.912 Y12.473 E30.03837
G1 X-16.248 Y11.805 E30.07567
G1 X-16.51 Y11.104 E30.11301
G1 X-16.697 Y10.38 E30.15032
G1 X-16.805 Y9.64 E30.18763
G1 X-16.833 Y8.892 E30.22497
G1 X-16.782 Y8.146 E30.26227
G1 X-16.651 Y7.409 E30.29962
G1 X-16.524 Y6.973 E30.32228
G1 X-17.072 Y6.608 E30.35513
G1 X-17.833 Y5.95 E30.40532
G1 X-17.95 Y5.833 E30.41357
G1 X-18.45 Y5.276 E30.45091
G1 X-18.887 Y4.67 E30.48819
G1 X-19.258 Y4.02 E30.52553
G1 X-19.557 Y3.334 E30.56286
G1 X-19.781 Y2.62 E30.6002
G1 X-19.928 Y1.887 E30.63749
G1 X-20 Y0.883 E30.68771
G1 X-20 Y0.117 E30.72593
G1 X-19.96 Y-.63 E30.76325
G1 X-19.841 Y-1.368 E30.80054
G1 X-19.643 Y-2.09 E30.83789
G1 X-19.37 Y-2.786 E30.87519
